X: 242
T: Polonäs, sexdregasamlingen del 2 nr 45
S: efter Anders Larsson
B: Sexdregasamlingen del 2 nr 45
B: Jämför [[http://www.smus.se/earkiv/fmk/browselarge.php?lang=sw&katalogid=M+155&bildnr=00064|SMUS - katalog M155 bild 64]] (andra polonäsen, fortsätter även på nästföljande sida) ur [[Notböcker/Fredrik Sallings nothäfte]] från [[Platser/Dalarna]]
B: Jämför [[http://www.smus.se/earkiv/fmk/browselarge.php?lang=sw&katalogid=Ma+1&bildnr=00026|SMUS - katalog M1 bild 26]] nr 73 ur [[Notböcker/Pehr Anderssons notbok]]
O: Sexdrega, Västergötland
R: Slängpolska
Z: 2008-05-31 av Nils L
M: 3/4
L: 1/16
K: D
D4 D4 D4 | d2dc d2dc d4 | D4 D4 D4 | f2fe f2fe f4 | A,2a2 a2f2 f2d2 | D2g2 g2e2 e2c2 |
f2ef g2f2 e2d2 | e2ef e8 :: A4 A4 A4 | c2cB c2cB c4 | A4 A4 A4 | a2a^g a2ag a4 |
a2e2 e2d2 d2c2 | e2d2 d2c2 c2B2 | A2e2 d2c2 B2A2 | ^GABG A4 A,4 | A2AB =c2c2 c2c2|
=c2a2 c2BA B4 | B2B^c d2d2 d2d2 | d2b2 d2cB c4 | g2f2 f2e2 e4 | G2F2 F2E2 E4 | 
D2D2 D2D2 DEFG | A2A2 A2Bc d2f2 | f2a2 g2f2 e2d2 | cdec d4 D4 :|
(:musicend:)

(:music:)
